build/svg/cmd/32/unsetcellsreadonly.svg

<?xml version="1.0" encoding="UTF-8" standalone="no"?>
<svg
   xmlns:dc="http://purl.org/dc/elements/1.1/"
   xmlns:cc="http://creativecommons.org/ns#"
   xmlns:rdf="http://www.w3.org/1999/02/22-rdf-syntax-ns#"
   xmlns:svg="http://www.w3.org/2000/svg"
   xmlns="http://www.w3.org/2000/svg"
   xmlns:sodipodi="http://sodipodi.sourceforge.net/DTD/sodipodi-0.dtd"
   xmlns:inkscape="http://www.inkscape.org/namespaces/inkscape"
   viewBox="0 0 32 32"
   version="1.1"
   id="svg4"
   sodipodi:docname="unsetcellsreadonly.svg"
   inkscape:version="0.92.4 (5da689c313, 2019-01-14)"
   inkscape:export-filename="/home/jupiter007/Libreoffice yaru theme fullcolor/build/cmd/32/unsetcellsreadonly.png"
   inkscape:export-xdpi="95"
   inkscape:export-ydpi="95">
  <metadata
     id="metadata10">
    <rdf:RDF>
      <cc:Work
         rdf:about="">
        <dc:format>image/svg+xml</dc:format>
        <dc:type
           rdf:resource="http://purl.org/dc/dcmitype/StillImage" />
      </cc:Work>
    </rdf:RDF>
  </metadata>
  <defs
     id="defs8" />
  <sodipodi:namedview
     pagecolor="#ffffff"
     bordercolor="#666666"
     borderopacity="1"
     objecttolerance="10"
     gridtolerance="10"
     guidetolerance="10"
     inkscape:pageopacity="0"
     inkscape:pageshadow="2"
     inkscape:window-width="1920"
     inkscape:window-height="1011"
     id="namedview6"
     showgrid="true"
     inkscape:zoom="14.75"
     inkscape:cx="38.0992"
     inkscape:cy="6.3195707"
     inkscape:window-x="0"
     inkscape:window-y="32"
     inkscape:window-maximized="1"
     inkscape:current-layer="svg4">
    <inkscape:grid
       type="xygrid"
       id="grid833" />
  </sodipodi:namedview>
  <path
     sodipodi:nodetypes="ccccccssccssccc"
     style="fill:#000000;stroke:#000000;opacity:0.6;stroke-width:2;stroke-miterlimit:4;stroke-dasharray:none;stroke-linejoin:round"
     inkscape:connector-curvature="0"
     id="path823"
     d="M 10,15 H 7 V 28 H 25 V 15 H 22 V 9.9999998 c 0,-3.3137081 -2.686292,-5.9999996 -6,-5.9999996 -3.313708,0 -6,2.6862915 -6,5.9999996 h 1 c 0,-2.7614233 2.238576,-4.9999996 5,-4.9999996 2.761424,0 5,2.2385763 5,4.9999996 V 15 H 11 Z" />
  <path
     d="M 10,15 H 7 V 28 H 25 V 15 H 22 V 9.9999998 c 0,-3.3137081 -2.686292,-5.9999996 -6,-5.9999996 -3.313708,0 -6,2.6862915 -6,5.9999996 h 1 c 0,-2.7614233 2.238576,-4.9999996 5,-4.9999996 2.761424,0 5,2.2385763 5,4.9999996 V 15 H 11 Z"
     id="path2"
     inkscape:connector-curvature="0"
     style="fill:#ffffff"
     sodipodi:nodetypes="ccccccssccssccc" />
  <circle
     style="opacity:1;vector-effect:none;fill:#c7162b;fill-opacity:1;stroke:none;stroke-width:5;stroke-linecap:butt;stroke-linejoin:round;stroke-miterlimit:4;stroke-dasharray:none;stroke-dashoffset:0;stroke-opacity:1"
     id="path2644"
     cy="26"
     cx="24"
     r="5" />
  <path
     inkscape:connector-curvature="0"
     id="path1063"
     overflow="visible"
     font-weight="400"
     style="color:#000000;font-weight:400;line-height:normal;font-family:sans-serif;text-indent:0;text-align:start;text-decoration:none;text-decoration-line:none;text-decoration-style:solid;text-decoration-color:#000000;text-transform:none;white-space:normal;overflow:visible;isolation:auto;mix-blend-mode:normal;fill:#ffffff;fill-opacity:1;marker:none"
     d="M 21.171575,23.878678 23.292893,26 21.171575,28.121322 21.87868,28.828427 24,26.707107 26.121322,28.828425 26.828427,28.12132 24.707107,26 26.828427,23.87868 26.121322,23.171575 24,25.292893 21.87868,23.171573 Z"
     sodipodi:nodetypes="ccccccccccccc" />
</svg>

<svg xmlns="http://www.w3.org/2000/svg" viewBox="0 0 32 32"><path d="M10 15H7v13h18V15h-3v-5a6 6 0 00-12 0h1a5 5 0 0110 0v5H11z" stroke="#000" opacity=".6" stroke-width="2" stroke-linejoin="round"/><path d="M10 15H7v13h18V15h-3v-5a6 6 0 00-12 0h1a5 5 0 0110 0v5H11z" fill="#fff"/><circle cy="26" cx="24" r="5" fill="#c7162b"/><path overflow="visible" font-weight="400" style="line-height:normal;text-indent:0;text-align:start;text-decoration-line:none;text-decoration-style:solid;text-decoration-color:#000;text-transform:none;white-space:normal;isolation:auto;mix-blend-mode:normal;marker:none" d="M21.172 23.879L23.292 26l-2.12 2.121.707.707L24 26.708l2.121 2.12.707-.707L24.708 26l2.12-2.121-.707-.707L24 25.292l-2.121-2.12z" color="#000" font-family="sans-serif" fill="#fff"/></svg>
